X:6362
T:Swans Among The Rushes
O:england
R:jig
C:Ed Reavy
M:6/8
L:1/8
N:Ed loved to watch their flight and see them
N:"paddle in the cold companionable streams or
N:climb the air." He watched them, too, when
N:they laid their eggs among the rushes in the lake
N:waters near the family farm in Barnagrove.
K:G
f|gfg agf|gdB e2 d|cBc EFG|AGE D2 B,|DGB BAB|dcB cBc|
fed cAF|GBA G3:||Bcd efg|fdf ecA|GBd eag|fdf g3|Bcd efg|
fdf ece|fef agf|gba g2:||
